images/50420028.svg

<?xml version="1.0" encoding="UTF-8"?>
<svg xmlns="http://www.w3.org/2000/svg" xmlns:xlink="http://www.w3.org/1999/xlink" width="300pt" height="300pt" viewBox="0 0 300 300" version="1.1">
<defs>
<g>
<symbol overflow="visible" id="glyph0-0">
<path style="stroke:none;" d="M 0.453125 1.59375 L 0.453125 -6.34375 L 4.953125 -6.34375 L 4.953125 1.59375 Z M 0.953125 1.09375 L 4.453125 1.09375 L 4.453125 -5.84375 L 0.953125 -5.84375 Z M 0.953125 1.09375 "/>
</symbol>
<symbol overflow="visible" id="glyph0-1">
<path style="stroke:none;" d="M 0.890625 -6.5625 L 4.65625 -6.5625 L 4.65625 -5.8125 L 1.765625 -5.8125 L 1.765625 -3.875 L 4.375 -3.875 L 4.375 -3.140625 L 1.765625 -3.140625 L 1.765625 0 L 0.890625 0 Z M 0.890625 -6.5625 "/>
</symbol>
<symbol overflow="visible" id="glyph0-2">
<path style="stroke:none;" d="M 0.890625 -6.5625 L 2.078125 -6.5625 L 4.984375 -1.078125 L 4.984375 -6.5625 L 5.84375 -6.5625 L 5.84375 0 L 4.65625 0 L 1.75 -5.484375 L 1.75 0 L 0.890625 0 Z M 0.890625 -6.5625 "/>
</symbol>
<symbol overflow="visible" id="glyph0-3">
<path style="stroke:none;" d="M 0.890625 -6.5625 L 1.765625 -6.5625 L 1.765625 -3.875 L 5 -3.875 L 5 -6.5625 L 5.890625 -6.5625 L 5.890625 0 L 5 0 L 5 -3.125 L 1.765625 -3.125 L 1.765625 0 L 0.890625 0 Z M 0.890625 -6.5625 "/>
</symbol>
</g>
</defs>
<g id="surface27293">
<rect x="0" y="0" width="300" height="300" style="fill:rgb(100%,100%,100%);fill-opacity:1;stroke:none;"/>
<path style="fill:none;stroke-width:1.2;stroke-linecap:butt;stroke-linejoin:miter;stroke:rgb(20%,80%,80%);stroke-opacity:1;stroke-miterlimit:10;" d="M 188.015625 214.1875 L 181.941406 204.875 "/>
<path style="fill:none;stroke-width:1.2;stroke-linecap:butt;stroke-linejoin:miter;stroke:rgb(0%,0%,0%);stroke-opacity:1;stroke-miterlimit:10;" d="M 181.941406 204.875 L 175.863281 195.5625 "/>
<path style=" stroke:none;fill-rule:nonzero;fill:rgb(100%,100%,100%);fill-opacity:1;" d="M 185.015625 208.6875 L 191.015625 208.6875 L 191.015625 219.6875 L 185.015625 219.6875 Z M 185.015625 208.6875 "/>
<g style="fill:rgb(20%,80%,80%);fill-opacity:1;">
  <use xlink:href="#glyph0-1" x="185.015625" y="217.350586"/>
</g>
<path style="fill:none;stroke-width:1.2;stroke-linecap:butt;stroke-linejoin:miter;stroke:rgb(0%,0%,0%);stroke-opacity:1;stroke-miterlimit:10;" d="M 175.863281 195.5625 L 153.65625 196.773438 "/>
<path style="fill:none;stroke-width:1.2;stroke-linecap:butt;stroke-linejoin:miter;stroke:rgb(0%,0%,0%);stroke-opacity:1;stroke-miterlimit:10;" d="M 173.359375 190.460938 L 155.59375 191.429688 "/>
<path style="fill:none;stroke-width:1.2;stroke-linecap:butt;stroke-linejoin:miter;stroke:rgb(0%,0%,0%);stroke-opacity:1;stroke-miterlimit:10;" d="M 185.917969 175.726562 L 175.863281 195.5625 "/>
<path style="fill:none;stroke-width:1.2;stroke-linecap:butt;stroke-linejoin:miter;stroke:rgb(0%,0%,0%);stroke-opacity:1;stroke-miterlimit:10;" d="M 153.65625 196.773438 L 141.503906 178.148438 "/>
<path style="fill:none;stroke-width:1.2;stroke-linecap:butt;stroke-linejoin:miter;stroke:rgb(0%,0%,0%);stroke-opacity:1;stroke-miterlimit:10;" d="M 141.503906 178.148438 L 151.558594 158.3125 "/>
<path style="fill:none;stroke-width:1.2;stroke-linecap:butt;stroke-linejoin:miter;stroke:rgb(0%,0%,0%);stroke-opacity:1;stroke-miterlimit:10;" d="M 147.179688 178.53125 L 155.222656 162.664062 "/>
<path style="fill:none;stroke-width:1.2;stroke-linecap:butt;stroke-linejoin:miter;stroke:rgb(0%,0%,0%);stroke-opacity:1;stroke-miterlimit:10;" d="M 151.558594 158.3125 L 173.765625 157.101562 "/>
<path style="fill:none;stroke-width:1.2;stroke-linecap:butt;stroke-linejoin:miter;stroke:rgb(0%,0%,0%);stroke-opacity:1;stroke-miterlimit:10;" d="M 151.558594 158.3125 L 139.40625 139.6875 "/>
<path style="fill:none;stroke-width:1.2;stroke-linecap:butt;stroke-linejoin:miter;stroke:rgb(0%,0%,0%);stroke-opacity:1;stroke-miterlimit:10;" d="M 173.765625 157.101562 L 185.917969 175.726562 "/>
<path style="fill:none;stroke-width:1.2;stroke-linecap:butt;stroke-linejoin:miter;stroke:rgb(0%,0%,0%);stroke-opacity:1;stroke-miterlimit:10;" d="M 170.597656 161.824219 L 180.320312 176.722656 "/>
<path style="fill:none;stroke-width:1.2;stroke-linecap:butt;stroke-linejoin:miter;stroke:rgb(0%,0%,0%);stroke-opacity:1;stroke-miterlimit:10;" d="M 139.40625 139.6875 L 128.300781 139.128906 "/>
<path style="fill:none;stroke-width:1.2;stroke-linecap:butt;stroke-linejoin:miter;stroke:rgb(0%,0%,100%);stroke-opacity:1;stroke-miterlimit:10;" d="M 128.300781 139.128906 L 117.195312 138.570312 "/>
<path style="fill:none;stroke-width:1.2;stroke-linecap:butt;stroke-linejoin:miter;stroke:rgb(0%,0%,0%);stroke-opacity:1;stroke-miterlimit:10;" d="M 147.332031 118.910156 L 139.40625 139.6875 "/>
<path style="fill:none;stroke-width:1.2;stroke-linecap:butt;stroke-linejoin:miter;stroke:rgb(0%,0%,0%);stroke-opacity:1;stroke-miterlimit:10;" d="M 141.652344 119.121094 L 135.3125 135.746094 "/>
<path style="fill:none;stroke-width:1.2;stroke-linecap:butt;stroke-linejoin:miter;stroke:rgb(0%,0%,100%);stroke-opacity:1;stroke-miterlimit:10;" d="M 117.195312 138.570312 L 114.296875 127.835938 "/>
<path style="fill:none;stroke-width:1.2;stroke-linecap:butt;stroke-linejoin:miter;stroke:rgb(0%,0%,0%);stroke-opacity:1;stroke-miterlimit:10;" d="M 114.296875 127.835938 L 111.394531 117.101562 "/>
<path style="fill:none;stroke-width:1.2;stroke-linecap:butt;stroke-linejoin:miter;stroke:rgb(0%,0%,100%);stroke-opacity:1;stroke-miterlimit:10;" d="M 117.195312 138.570312 L 110.21875 147.226562 "/>
<path style="fill:none;stroke-width:1.2;stroke-linecap:butt;stroke-linejoin:miter;stroke:rgb(0%,0%,0%);stroke-opacity:1;stroke-miterlimit:10;" d="M 110.21875 147.226562 L 103.238281 155.886719 "/>
<path style=" stroke:none;fill-rule:nonzero;fill:rgb(100%,100%,100%);fill-opacity:1;" d="M 114.195312 133.070312 L 121.195312 133.070312 L 121.195312 144.070312 L 114.195312 144.070312 Z M 114.195312 133.070312 "/>
<g style="fill:rgb(0%,0%,100%);fill-opacity:1;">
  <use xlink:href="#glyph0-2" x="114.195312" y="141.733398"/>
</g>
<path style="fill:none;stroke-width:1.2;stroke-linecap:butt;stroke-linejoin:miter;stroke:rgb(0%,0%,0%);stroke-opacity:1;stroke-miterlimit:10;" d="M 111.394531 117.101562 L 120.707031 111.027344 "/>
<path style="fill:none;stroke-width:1.2;stroke-linecap:butt;stroke-linejoin:miter;stroke:rgb(0%,0%,100%);stroke-opacity:1;stroke-miterlimit:10;" d="M 120.707031 111.027344 L 130.019531 104.949219 "/>
<path style="fill:none;stroke-width:1.2;stroke-linecap:butt;stroke-linejoin:miter;stroke:rgb(0%,0%,0%);stroke-opacity:1;stroke-miterlimit:10;" d="M 116.117188 120.269531 L 123.566406 115.410156 "/>
<path style="fill:none;stroke-width:1.2;stroke-linecap:butt;stroke-linejoin:miter;stroke:rgb(0%,0%,100%);stroke-opacity:1;stroke-miterlimit:10;" d="M 123.566406 115.410156 L 131.015625 110.546875 "/>
<path style="fill:none;stroke-width:1.2;stroke-linecap:butt;stroke-linejoin:miter;stroke:rgb(0%,0%,100%);stroke-opacity:1;stroke-miterlimit:10;" d="M 130.019531 104.949219 L 138.675781 111.929688 "/>
<path style="fill:none;stroke-width:1.2;stroke-linecap:butt;stroke-linejoin:miter;stroke:rgb(0%,0%,0%);stroke-opacity:1;stroke-miterlimit:10;" d="M 138.675781 111.929688 L 147.332031 118.910156 "/>
<path style=" stroke:none;fill-rule:nonzero;fill:rgb(100%,100%,100%);fill-opacity:1;" d="M 127.019531 99.449219 L 134.019531 99.449219 L 134.019531 110.449219 L 127.019531 110.449219 Z M 127.019531 99.449219 "/>
<g style="fill:rgb(0%,0%,100%);fill-opacity:1;">
  <use xlink:href="#glyph0-2" x="127.019531" y="108.112305"/>
</g>
<path style="fill:none;stroke-width:1.2;stroke-linecap:butt;stroke-linejoin:miter;stroke:rgb(0%,0%,0%);stroke-opacity:1;stroke-miterlimit:10;" d="M 147.332031 118.910156 L 168.800781 113.105469 "/>
<path style="fill:none;stroke-width:1.2;stroke-linecap:butt;stroke-linejoin:miter;stroke:rgb(0%,0%,0%);stroke-opacity:1;stroke-miterlimit:10;" d="M 168.800781 113.105469 L 176.679688 120.953125 "/>
<path style="fill:none;stroke-width:1.2;stroke-linecap:butt;stroke-linejoin:miter;stroke:rgb(0%,0%,100%);stroke-opacity:1;stroke-miterlimit:10;" d="M 176.679688 120.953125 L 184.558594 128.796875 "/>
<path style="fill:none;stroke-width:1.2;stroke-linecap:butt;stroke-linejoin:miter;stroke:rgb(0%,0%,0%);stroke-opacity:1;stroke-miterlimit:10;" d="M 174.070312 110.96875 L 180.371094 117.246094 "/>
<path style="fill:none;stroke-width:1.2;stroke-linecap:butt;stroke-linejoin:miter;stroke:rgb(0%,0%,100%);stroke-opacity:1;stroke-miterlimit:10;" d="M 180.371094 117.246094 L 186.675781 123.523438 "/>
<path style="fill:none;stroke-width:1.2;stroke-linecap:butt;stroke-linejoin:miter;stroke:rgb(0%,0%,0%);stroke-opacity:1;stroke-miterlimit:10;" d="M 174.511719 91.613281 L 168.800781 113.105469 "/>
<path style="fill:none;stroke-width:1.2;stroke-linecap:butt;stroke-linejoin:miter;stroke:rgb(0%,0%,100%);stroke-opacity:1;stroke-miterlimit:10;" d="M 184.558594 128.796875 L 195.292969 125.898438 "/>
<path style="fill:none;stroke-width:1.2;stroke-linecap:butt;stroke-linejoin:miter;stroke:rgb(0%,0%,0%);stroke-opacity:1;stroke-miterlimit:10;" d="M 195.292969 125.898438 L 206.027344 122.996094 "/>
<path style=" stroke:none;fill-rule:nonzero;fill:rgb(100%,100%,100%);fill-opacity:1;" d="M 181.558594 123.296875 L 188.558594 123.296875 L 188.558594 134.296875 L 181.558594 134.296875 Z M 181.558594 123.296875 "/>
<g style="fill:rgb(0%,0%,100%);fill-opacity:1;">
  <use xlink:href="#glyph0-2" x="181.558594" y="131.959961"/>
</g>
<path style="fill:none;stroke-width:1.2;stroke-linecap:butt;stroke-linejoin:miter;stroke:rgb(0%,0%,0%);stroke-opacity:1;stroke-miterlimit:10;" d="M 206.027344 122.996094 L 208.882812 112.25 "/>
<path style="fill:none;stroke-width:1.2;stroke-linecap:butt;stroke-linejoin:miter;stroke:rgb(0%,0%,100%);stroke-opacity:1;stroke-miterlimit:10;" d="M 208.882812 112.25 L 211.738281 101.503906 "/>
<path style="fill:none;stroke-width:1.2;stroke-linecap:butt;stroke-linejoin:miter;stroke:rgb(0%,0%,0%);stroke-opacity:1;stroke-miterlimit:10;" d="M 201.542969 119.503906 L 203.828125 110.90625 "/>
<path style="fill:none;stroke-width:1.2;stroke-linecap:butt;stroke-linejoin:miter;stroke:rgb(0%,0%,100%);stroke-opacity:1;stroke-miterlimit:10;" d="M 203.828125 110.90625 L 206.109375 102.308594 "/>
<path style="fill:none;stroke-width:1.2;stroke-linecap:butt;stroke-linejoin:miter;stroke:rgb(0%,0%,0%);stroke-opacity:1;stroke-miterlimit:10;" d="M 206.027344 122.996094 L 213.910156 130.84375 "/>
<path style="fill:none;stroke-width:1.2;stroke-linecap:butt;stroke-linejoin:miter;stroke:rgb(0%,0%,100%);stroke-opacity:1;stroke-miterlimit:10;" d="M 213.910156 130.84375 L 221.789062 138.6875 "/>
<path style="fill:none;stroke-width:1.2;stroke-linecap:butt;stroke-linejoin:miter;stroke:rgb(0%,0%,100%);stroke-opacity:1;stroke-miterlimit:10;" d="M 211.738281 101.503906 L 203.859375 93.65625 "/>
<path style="fill:none;stroke-width:1.2;stroke-linecap:butt;stroke-linejoin:miter;stroke:rgb(0%,0%,0%);stroke-opacity:1;stroke-miterlimit:10;" d="M 203.859375 93.65625 L 195.980469 85.8125 "/>
<path style=" stroke:none;fill-rule:nonzero;fill:rgb(100%,100%,100%);fill-opacity:1;" d="M 208.738281 96.003906 L 215.738281 96.003906 L 215.738281 107.003906 L 208.738281 107.003906 Z M 208.738281 96.003906 "/>
<g style="fill:rgb(0%,0%,100%);fill-opacity:1;">
  <use xlink:href="#glyph0-2" x="208.738281" y="104.666992"/>
</g>
<path style="fill:none;stroke-width:1.2;stroke-linecap:butt;stroke-linejoin:miter;stroke:rgb(0%,0%,0%);stroke-opacity:1;stroke-miterlimit:10;" d="M 195.980469 85.8125 L 174.511719 91.613281 "/>
<path style="fill:none;stroke-width:1.2;stroke-linecap:butt;stroke-linejoin:miter;stroke:rgb(0%,0%,0%);stroke-opacity:1;stroke-miterlimit:10;" d="M 195.199219 91.445312 L 178.023438 96.085938 "/>
<path style="fill:none;stroke-width:1.2;stroke-linecap:butt;stroke-linejoin:miter;stroke:rgb(0%,0%,100%);stroke-opacity:1;stroke-miterlimit:10;" d="M 221.789062 138.6875 L 232.523438 135.785156 "/>
<path style="fill:none;stroke-width:1.2;stroke-linecap:butt;stroke-linejoin:miter;stroke:rgb(0%,0%,0%);stroke-opacity:1;stroke-miterlimit:10;" d="M 232.523438 135.785156 L 243.257812 132.886719 "/>
<path style=" stroke:none;fill-rule:nonzero;fill:rgb(100%,100%,100%);fill-opacity:1;" d="M 214.789062 133.1875 L 228.789062 133.1875 L 228.789062 144.1875 L 214.789062 144.1875 Z M 214.789062 133.1875 "/>
<g style="fill:rgb(0%,0%,100%);fill-opacity:1;">
  <use xlink:href="#glyph0-2" x="214.789062" y="141.850586"/>
  <use xlink:href="#glyph0-3" x="221.766602" y="141.850586"/>
</g>
<path style="fill:none;stroke-width:1.2;stroke-linecap:butt;stroke-linejoin:miter;stroke:rgb(0%,0%,0%);stroke-opacity:1;stroke-miterlimit:10;" d="M 243.257812 132.886719 L 258.949219 117.128906 "/>
<path style="fill:none;stroke-width:1.2;stroke-linecap:butt;stroke-linejoin:miter;stroke:rgb(0%,0%,0%);stroke-opacity:1;stroke-miterlimit:10;" d="M 264.75 138.59375 L 243.257812 132.886719 "/>
<path style="fill:none;stroke-width:1.2;stroke-linecap:butt;stroke-linejoin:miter;stroke:rgb(0%,0%,0%);stroke-opacity:1;stroke-miterlimit:10;" d="M 258.949219 117.128906 L 264.75 138.59375 "/>
<path style="fill:none;stroke-width:1.2;stroke-linecap:butt;stroke-linejoin:miter;stroke:rgb(0%,0%,0%);stroke-opacity:1;stroke-miterlimit:10;" d="M 103.238281 155.886719 L 81.265625 152.453125 "/>
<path style="fill:none;stroke-width:1.2;stroke-linecap:butt;stroke-linejoin:miter;stroke:rgb(0%,0%,0%);stroke-opacity:1;stroke-miterlimit:10;" d="M 81.265625 152.453125 L 73.25 131.707031 "/>
<path style="fill:none;stroke-width:1.2;stroke-linecap:butt;stroke-linejoin:miter;stroke:rgb(0%,0%,0%);stroke-opacity:1;stroke-miterlimit:10;" d="M 75.582031 152.265625 L 69.171875 135.667969 "/>
<path style="fill:none;stroke-width:1.2;stroke-linecap:butt;stroke-linejoin:miter;stroke:rgb(0%,0%,0%);stroke-opacity:1;stroke-miterlimit:10;" d="M 67.308594 169.765625 L 81.265625 152.453125 "/>
<path style="fill:none;stroke-width:1.2;stroke-linecap:butt;stroke-linejoin:miter;stroke:rgb(0%,0%,0%);stroke-opacity:1;stroke-miterlimit:10;" d="M 73.25 131.707031 L 51.277344 128.277344 "/>
<path style="fill:none;stroke-width:1.2;stroke-linecap:butt;stroke-linejoin:miter;stroke:rgb(0%,0%,0%);stroke-opacity:1;stroke-miterlimit:10;" d="M 51.277344 128.277344 L 37.320312 145.589844 "/>
<path style="fill:none;stroke-width:1.2;stroke-linecap:butt;stroke-linejoin:miter;stroke:rgb(0%,0%,0%);stroke-opacity:1;stroke-miterlimit:10;" d="M 53.957031 133.292969 L 42.789062 147.144531 "/>
<path style="fill:none;stroke-width:1.2;stroke-linecap:butt;stroke-linejoin:miter;stroke:rgb(0%,0%,0%);stroke-opacity:1;stroke-miterlimit:10;" d="M 51.277344 128.277344 L 43.265625 107.53125 "/>
<path style="fill:none;stroke-width:1.2;stroke-linecap:butt;stroke-linejoin:miter;stroke:rgb(0%,0%,0%);stroke-opacity:1;stroke-miterlimit:10;" d="M 37.320312 145.589844 L 45.335938 166.335938 "/>
<path style="fill:none;stroke-width:1.2;stroke-linecap:butt;stroke-linejoin:miter;stroke:rgb(0%,0%,0%);stroke-opacity:1;stroke-miterlimit:10;" d="M 45.335938 166.335938 L 67.308594 169.765625 "/>
<path style="fill:none;stroke-width:1.2;stroke-linecap:butt;stroke-linejoin:miter;stroke:rgb(0%,0%,0%);stroke-opacity:1;stroke-miterlimit:10;" d="M 48.339844 161.507812 L 65.917969 164.253906 "/>
<path style="fill:none;stroke-width:1.2;stroke-linecap:butt;stroke-linejoin:miter;stroke:rgb(0%,0%,0%);stroke-opacity:1;stroke-miterlimit:10;" d="M 43.265625 107.53125 L 39.257812 97.160156 "/>
<path style="fill:none;stroke-width:1.2;stroke-linecap:butt;stroke-linejoin:miter;stroke:rgb(0%,0%,100%);stroke-opacity:1;stroke-miterlimit:10;" d="M 39.257812 97.160156 L 35.25 86.789062 "/>
<path style="fill:none;stroke-width:1.2;stroke-linecap:butt;stroke-linejoin:miter;stroke:rgb(0%,0%,0%);stroke-opacity:1;stroke-miterlimit:10;" d="M 47.34375 103.570312 L 44.136719 95.273438 "/>
<path style="fill:none;stroke-width:1.2;stroke-linecap:butt;stroke-linejoin:miter;stroke:rgb(0%,0%,100%);stroke-opacity:1;stroke-miterlimit:10;" d="M 44.136719 95.273438 L 40.933594 86.976562 "/>
<path style="fill:none;stroke-width:1.2;stroke-linecap:butt;stroke-linejoin:miter;stroke:rgb(0%,0%,0%);stroke-opacity:1;stroke-miterlimit:10;" d="M 37.582031 107.34375 L 34.375 99.046875 "/>
<path style="fill:none;stroke-width:1.2;stroke-linecap:butt;stroke-linejoin:miter;stroke:rgb(0%,0%,100%);stroke-opacity:1;stroke-miterlimit:10;" d="M 34.375 99.046875 L 31.171875 90.746094 "/>
<path style=" stroke:none;fill-rule:nonzero;fill:rgb(100%,100%,100%);fill-opacity:1;" d="M 28.25 81.289062 L 35.25 81.289062 L 35.25 92.289062 L 28.25 92.289062 Z M 28.25 81.289062 "/>
<g style="fill:rgb(0%,0%,100%);fill-opacity:1;">
  <use xlink:href="#glyph0-2" x="28.25" y="89.952148"/>
</g>
</g>
</svg>

<svg xmlns="http://www.w3.org/2000/svg" xmlns:xlink="http://www.w3.org/1999/xlink" width="300pt" height="300pt" viewBox="0 0 300 300"><defs><symbol overflow="visible"><path d="M.453 1.594v-7.938h4.5v7.938zm.5-.5h3.5v-6.938h-3.5zm0 0"/></symbol><symbol overflow="visible" id="a"><path d="M.89-6.563h3.766v.75h-2.89v1.938h2.61v.734h-2.61V0H.89zm0 0"/></symbol><symbol overflow="visible" id="b"><path d="M.89-6.563H2.08l2.906 5.485v-5.484h.86V0H4.656L1.75-5.484V0H.89zm0 0"/></symbol><symbol overflow="visible" id="c"><path d="M.89-6.563h.876v2.688H5v-2.688h.89V0H5v-3.125H1.766V0H.89zm0 0"/></symbol></defs><g><path fill="#fff" d="M0 0h300v300H0z"/><path d="M188.016 214.188l-6.075-9.313" stroke-width="1.2" stroke="#3cc" stroke-miterlimit="10" fill="none"/><path d="M181.94 204.875l-6.077-9.313" stroke-width="1.2" stroke="#000" stroke-miterlimit="10" fill="none"/><path d="M185.016 208.688h6v11h-6zm0 0" fill="#fff"/><use xlink:href="#a" x="185.016" y="217.351" fill="#3cc"/><path d="M175.863 195.563l-22.207 1.21M173.36 190.46l-17.766.97M185.918 175.727l-10.055 19.835M153.656 196.773l-12.152-18.625M141.504 178.148l10.055-19.835M147.18 178.53l8.043-15.866M151.56 158.313l22.206-1.21M151.56 158.313l-12.154-18.625M173.766 157.102l12.152 18.625M170.598 161.824l9.722 14.9M139.406 139.688l-11.105-.56" stroke-width="1.2" stroke="#000" stroke-miterlimit="10" fill="none"/><path d="M128.3 139.13l-11.105-.56" stroke-width="1.2" stroke="#00f" stroke-miterlimit="10" fill="none"/><path d="M147.332 118.91l-7.926 20.778M141.652 119.12l-6.34 16.626" stroke-width="1.2" stroke="#000" stroke-miterlimit="10" fill="none"/><path d="M117.195 138.57l-2.898-10.734" stroke-width="1.2" stroke="#00f" stroke-miterlimit="10" fill="none"/><path d="M114.297 127.836l-2.902-10.734" stroke-width="1.2" stroke="#000" stroke-miterlimit="10" fill="none"/><path d="M117.195 138.57l-6.976 8.657" stroke-width="1.2" stroke="#00f" stroke-miterlimit="10" fill="none"/><path d="M110.22 147.227l-6.982 8.66" stroke-width="1.2" stroke="#000" stroke-miterlimit="10" fill="none"/><path d="M114.195 133.07h7v11h-7zm0 0" fill="#fff"/><use xlink:href="#b" x="114.195" y="141.733" fill="#00f"/><path d="M111.395 117.102l9.312-6.075" stroke-width="1.2" stroke="#000" stroke-miterlimit="10" fill="none"/><path d="M120.707 111.027l9.313-6.078" stroke-width="1.2" stroke="#00f" stroke-miterlimit="10" fill="none"/><path d="M116.117 120.27l7.45-4.86" stroke-width="1.2" stroke="#000" stroke-miterlimit="10" fill="none"/><path d="M123.566 115.41l7.45-4.863M130.02 104.95l8.656 6.98" stroke-width="1.2" stroke="#00f" stroke-miterlimit="10" fill="none"/><path d="M138.676 111.93l8.656 6.98" stroke-width="1.2" stroke="#000" stroke-miterlimit="10" fill="none"/><path d="M127.02 99.45h7v11h-7zm0 0" fill="#fff"/><use xlink:href="#b" x="127.02" y="108.112" fill="#00f"/><path d="M147.332 118.91l21.47-5.805M168.8 113.105l7.88 7.848" stroke-width="1.2" stroke="#000" stroke-miterlimit="10" fill="none"/><path d="M176.68 120.953l7.88 7.844" stroke-width="1.2" stroke="#00f" stroke-miterlimit="10" fill="none"/><path d="M174.07 110.97l6.3 6.276" stroke-width="1.2" stroke="#000" stroke-miterlimit="10" fill="none"/><path d="M180.37 117.246l6.306 6.277" stroke-width="1.2" stroke="#00f" stroke-miterlimit="10" fill="none"/><path d="M174.512 91.613l-5.71 21.492" stroke-width="1.2" stroke="#000" stroke-miterlimit="10" fill="none"/><path d="M184.56 128.797l10.733-2.9" stroke-width="1.2" stroke="#00f" stroke-miterlimit="10" fill="none"/><path d="M195.293 125.898l10.734-2.902" stroke-width="1.2" stroke="#000" stroke-miterlimit="10" fill="none"/><path d="M181.56 123.297h7v11h-7zm0 0" fill="#fff"/><use xlink:href="#b" x="181.559" y="131.96" fill="#00f"/><path d="M206.027 122.996l2.856-10.746" stroke-width="1.2" stroke="#000" stroke-miterlimit="10" fill="none"/><path d="M208.883 112.25l2.855-10.746" stroke-width="1.2" stroke="#00f" stroke-miterlimit="10" fill="none"/><path d="M201.543 119.504l2.285-8.598" stroke-width="1.2" stroke="#000" stroke-miterlimit="10" fill="none"/><path d="M203.828 110.906l2.28-8.597" stroke-width="1.2" stroke="#00f" stroke-miterlimit="10" fill="none"/><path d="M206.027 122.996l7.883 7.848" stroke-width="1.2" stroke="#000" stroke-miterlimit="10" fill="none"/><path d="M213.91 130.844l7.88 7.844M211.738 101.504l-7.88-7.848" stroke-width="1.2" stroke="#00f" stroke-miterlimit="10" fill="none"/><path d="M203.86 93.656l-7.88-7.844" stroke-width="1.2" stroke="#000" stroke-miterlimit="10" fill="none"/><path d="M208.738 96.004h7v11h-7zm0 0" fill="#fff"/><use xlink:href="#b" x="208.738" y="104.667" fill="#00f"/><path d="M195.98 85.813l-21.468 5.8M195.2 91.445l-17.177 4.64" stroke-width="1.2" stroke="#000" stroke-miterlimit="10" fill="none"/><path d="M221.79 138.688l10.733-2.903" stroke-width="1.2" stroke="#00f" stroke-miterlimit="10" fill="none"/><path d="M232.523 135.785l10.735-2.898" stroke-width="1.2" stroke="#000" stroke-miterlimit="10" fill="none"/><path d="M214.79 133.188h14v11h-14zm0 0" fill="#fff"/><g fill="#00f"><use xlink:href="#b" x="214.789" y="141.851"/><use xlink:href="#c" x="221.767" y="141.851"/></g><path d="M243.258 132.887l15.69-15.758M264.75 138.594l-21.492-5.707M258.95 117.13l5.8 21.464M103.238 155.887l-21.972-3.434M81.266 152.453l-8.016-20.746M75.582 152.266l-6.41-16.598M67.31 169.766l13.956-17.313M73.25 131.707l-21.973-3.43M51.277 128.277L37.32 145.59M53.957 133.293L42.79 147.145M51.277 128.277l-8.01-20.746M37.32 145.59l8.016 20.746M45.336 166.336l21.973 3.43M48.34 161.508l17.578 2.746M43.266 107.53l-4.008-10.37" stroke-width="1.2" stroke="#000" stroke-miterlimit="10" fill="none"/><path d="M39.258 97.16L35.25 86.79" stroke-width="1.2" stroke="#00f" stroke-miterlimit="10" fill="none"/><path d="M47.344 103.57l-3.207-8.297" stroke-width="1.2" stroke="#000" stroke-miterlimit="10" fill="none"/><path d="M44.137 95.273l-3.203-8.296" stroke-width="1.2" stroke="#00f" stroke-miterlimit="10" fill="none"/><path d="M37.582 107.344l-3.207-8.297" stroke-width="1.2" stroke="#000" stroke-miterlimit="10" fill="none"/><path d="M34.375 99.047l-3.203-8.3" stroke-width="1.2" stroke="#00f" stroke-miterlimit="10" fill="none"/><path d="M28.25 81.29h7v11h-7zm0 0" fill="#fff"/><use xlink:href="#b" x="28.25" y="89.952" fill="#00f"/></g></svg>
